!!!COM: Mozart
!!!OTL: 12 Variations on "Ah Vous dirais-je, Maman" for the Piano
!!!Variation: 8 a2
**function	**harm	**kern	**kern
*	*	*clefF4	*clefG2
*	*	*k[b-e-a-]	*k[b-e-a-]
*M2/4	*M2/4	*M2/4	*M2/4
*c:	*c:	*c:	*c:
=209	=209	=209	=209
2T	C:min	4CC 4C	8cc'L
.	.	.	8dd'J
.	.	4r	8ee-'L
.	.	.	8ff'J
=210	=210	=210	=210
2T	C:min	2r	(8ff#L
.	.	.	16ggJk)
.	.	.	16r
.	.	.	(8ff#L
.	.	.	16ggJk)
.	.	.	16r
*	*	*clefG2	*
=211	=211	=211	=211
*	*	*	*^
2T	F:min	8f'L	2aa-	4gg
.	.	8g'J	.	.
.	.	8a-'L	.	[4ff
.	.	8b-'J	.	.
=212	=212	=212	=212	=212
2T	C:min	(8bL	2gg	4ff]
.	.	16ccJk)	.	.
.	.	16r	.	.
.	.	(8bL	.	[4ee-
.	.	16ccJk)	.	.
.	.	16r	.	.
*	*	*clefF4	*	*
=213	=213	=213	=213	=213
2T	G:7	8G'L	2ff	[4g 4ee-]
.	.	8A'J	.	.
.	.	8B'L	.	4g_ [4dd
.	.	8G'J	.	.
=214	=214	=214	=214	=214
4T	C:min	8c'L	2ee-	4g] 4dd]
.	.	8G'J	.	.
4T	A-:maj	8A-'L	.	[4cc
.	.	8E-'J	.	.
=215	=215	=215	=215	=215
4P	D:dim/b3	8F'L	2dd	4cc]
.	.	8D'J	.	.
4D	G:7	8G'L	.	4b
.	.	8GG'J	.	.
=216	=216	=216	=216	=216
2T	C:min	4C	4cc	4cc
*	*	*	*v	*v
.	.	4CC	4r
*-	*-	*-	*-
!!!EMD: Edited in humdrumR 0.7.0.3 on 2024-01-19
